lichess.svg

<?xml version="1.0" encoding="UTF-8" standalone="no" ?>
<!DOCTYPE svg PUBLIC "-//W3C//DTD SVG 1.1//EN" "http://www.w3.org/Graphics/SVG/1.1/DTD/svg11.dtd">
<svg xmlns="http://www.w3.org/2000/svg" xmlns:xlink="http://www.w3.org/1999/xlink" version="1.1" width="1080" height="1080" viewBox="0 0 1080 1080" xml:space="preserve">
<desc>Created with Fabric.js 5.2.4</desc>
<defs>
</defs>
<g transform="matrix(1 0 0 1 540 540)" id="88ef11fc-70d3-4753-97bd-afa8dabdd5b9"  >
<rect style="stroke: none; stroke-width: 1; stroke-dasharray: none; stroke-linecap: butt; stroke-dashoffset: 0; stroke-linejoin: miter; stroke-miterlimit: 4; fill: rgb(255,255,255); fill-rule: nonzero; opacity: 1; visibility: hidden;" vector-effect="non-scaling-stroke"  x="-540" y="-540" rx="0" ry="0" width="1080" height="1080" />
</g>
<g transform="matrix(1 0 0 1 540 540)" id="914b852c-0d3f-4785-99cf-1307fccdb7aa"  >
</g>
<g transform="matrix(1 0 0 1 540 540)" id="61ba4696-c9a2-455c-9947-1ec3c7292d14"  >
<path style="stroke: rgb(0,0,0); stroke-width: 0; stroke-dasharray: none; stroke-linecap: butt; stroke-dashoffset: 0; stroke-linejoin: miter; stroke-miterlimit: 4; fill: rgb(129,161,193); fill-rule: nonzero; opacity: 1;" vector-effect="non-scaling-stroke"  transform=" translate(-511.86, -512.17)" d="M 450.298 278.507 C 449.492 278.259 448.566 278.117 447.606 278.117 C 443.256 278.117 439.592 281.047 438.476 285.03900000000004 L 438.461 285.105 C 406.471 396.473 551.191 508.201 646.961 582.139 C 673.0740000000001 602.293 695.588 619.689 710.5840000000001 633.804 C 752.311 670.659 788.4290000000001 712.434 818.4440000000001 758.5459999999999 L 819.8720000000001 760.8879999999999 C 821.5020000000001 763.9999999999999 824.71 766.088 828.4060000000001 766.088 C 829.282 766.088 830.1310000000001 765.9699999999999 830.9380000000001 765.75 L 830.8710000000001 765.766 C 832.7490000000001 765.246 1019.8560000000001 713.781 988.181 582.858 C 987.955 581.948 987.6410000000001 581.1479999999999 987.235 580.405 L 987.2620000000001 580.459 L 760.0920000000001 168.37899999999996 L 789.1220000000001 43.93499999999996 C 789.282 43.27899999999996 789.3750000000001 42.52499999999996 789.3750000000001 41.75199999999996 C 789.3750000000001 36.44999999999996 785.0770000000001 32.15199999999996 779.7750000000001 32.15199999999996 C 779.3770000000001 32.15199999999996 778.9850000000001 32.17599999999996 778.6000000000001 32.22199999999996 L 778.6460000000002 32.21799999999996 C 711.4440000000002 34.917999999999964 649.6240000000003 55.79799999999996 597.3380000000002 90.03599999999996 L 598.6980000000002 89.19999999999996 C 404.99500000000023 76.28699999999996 250.0780000000002 125.18999999999997 150.30800000000022 230.71999999999997 C 76.857 312.156 31.923 420.55 31.923 539.443 C 31.923 559.7669999999999 33.236 579.783 35.783 599.413 L 35.536 597.096 C 64.64 788.874 209.62 939.937 395.74 977.77 L 398.673 978.2669999999999 C 433.753 986.805 474.051 991.7549999999999 515.488 991.8629999999999 L 515.5580000000001 991.8629999999999 C 520.2580000000002 992.0749999999999 525.7680000000001 992.1959999999999 531.3060000000002 992.1959999999999 C 655.0940000000002 992.1959999999999 764.7860000000002 931.848 832.5700000000002 838.9659999999999 L 833.3070000000001 837.906 C 834.2970000000001 836.4209999999999 834.8870000000002 834.596 834.8870000000002 832.632 C 834.8870000000002 827.3299999999999 830.5870000000002 823.0319999999999 825.2870000000001 823.0319999999999 C 822.6020000000002 823.0319999999999 820.1750000000002 824.1339999999999 818.4330000000001 825.9089999999999 C 741.1860000000001 903.1069999999999 634.4970000000001 950.8509999999999 516.6570000000002 950.8509999999999 C 431.2930000000001 950.8509999999999 351.7810000000002 925.7969999999999 285.07300000000015 882.6409999999998 L 286.7450000000002 883.6529999999998 C 169.33900000000017 814.0129999999998 91.86500000000018 687.9229999999998 91.86500000000018 543.7389999999998 C 91.86500000000018 481.97599999999983 106.08200000000018 423.5329999999998 131.41900000000018 371.5029999999998 L 130.3910000000002 373.8389999999998 C 196.8250000000002 241.19299999999984 331.69700000000023 151.72599999999983 487.46400000000017 151.72599999999983 C 523.0160000000002 151.72599999999983 557.4790000000002 156.38599999999983 590.2760000000002 165.12999999999982 L 587.4960000000002 164.49999999999983 C 588.0100000000002 164.59599999999983 588.6010000000002 164.64999999999984 589.2060000000002 164.64999999999984 C 591.0060000000002 164.64999999999984 592.6920000000002 164.16399999999985 594.1400000000002 163.31499999999983 L 594.0950000000003 163.33999999999983 L 607.4910000000002 155.46199999999982 C 640.3190000000002 132.6919999999998 678.6970000000002 115.06499999999983 719.9890000000003 104.82199999999982 L 722.3790000000002 104.31899999999982 L 694.6270000000003 184.01499999999982 C 694.2900000000003 184.9589999999998 694.0970000000003 186.0489999999998 694.0970000000003 187.1849999999998 C 694.0970000000003 188.9929999999998 694.5910000000003 190.6869999999998 695.4520000000003 192.1379999999998 L 695.4280000000003 192.0919999999998 L 938.6380000000004 599.6519999999998 C 936.9530000000004 651.5219999999998 899.5580000000003 694.1849999999998 850.3220000000003 703.9459999999998 L 849.6220000000003 704.0609999999998 C 825.4600000000003 660.1039999999998 794.6320000000003 622.9369999999998 758.0290000000003 592.4749999999998 L 757.4090000000003 591.9729999999998 C 732.2930000000003 570.5449999999998 704.5750000000003 549.9999999999999 675.4940000000004 531.3979999999998 L 672.4740000000004 529.5909999999998 C 577.9410000000004 465.5709999999998 435.0610000000004 368.8379999999998 456.89400000000035 290.3009999999998 C 457.12400000000036 289.52099999999984 457.25400000000036 288.6279999999998 457.25400000000036 287.7029999999998 C 457.25400000000036 283.3499999999998 454.34400000000034 279.6759999999998 450.3640000000004 278.5229999999998 L 450.2960000000004 278.5049999999998 z" stroke-linecap="round" />
</g>
<g transform="matrix(NaN NaN NaN NaN 0 0)"  >
<g style=""   >
</g>
</g>
<g transform="matrix(NaN NaN NaN NaN 0 0)"  >
<g style=""   >
</g>
</g>
</svg>

<svg viewBox="0 0 1024 1176.463" xmlns="http://www.w3.org/2000/svg"><path d="M450.298 278.507c-.806-.248-1.732-.39-2.692-.39-4.35 0-8.014 2.93-9.13 6.922l-.015.066c-31.99 111.368 112.73 223.096 208.5 297.034 26.113 20.154 48.627 37.55 63.623 51.665 41.727 36.855 77.845 78.63 107.86 124.742l1.428 2.342c1.63 3.112 4.838 5.2 8.534 5.2.876 0 1.725-.118 2.532-.338l-.067.016c1.878-.52 188.985-51.985 157.31-182.908-.226-.91-.54-1.71-.946-2.453l.027.054-227.17-412.08 29.03-124.444c.16-.656.253-1.41.253-2.183 0-5.302-4.298-9.6-9.6-9.6-.398 0-.79.024-1.175.07l.046-.004c-67.202 2.7-129.022 23.58-181.308 57.818l1.36-.836c-193.703-12.913-348.62 35.99-448.39 141.52C76.857 312.156 31.923 420.55 31.923 539.443c0 20.324 1.313 40.34 3.86 59.97l-.247-2.317C64.64 788.874 209.62 939.937 395.74 977.77l2.933.497c35.08 8.538 75.378 13.488 116.815 13.596h.07c4.7.212 10.21.333 15.748.333 123.788 0 233.48-60.348 301.264-153.23l.737-1.06c.99-1.485 1.58-3.31 1.58-5.274 0-5.302-4.3-9.6-9.6-9.6-2.685 0-5.112 1.102-6.854 2.877-77.247 77.198-183.936 124.942-301.776 124.942-85.364 0-164.876-25.054-231.584-68.21l1.672 1.012c-117.406-69.64-194.88-195.73-194.88-339.914 0-61.763 14.217-120.206 39.554-172.236l-1.028 2.336c66.434-132.646 201.306-222.113 357.073-222.113 35.552 0 70.015 4.66 102.812 13.404l-2.78-.63c.514.096 1.105.15 1.71.15 1.8 0 3.486-.486 4.934-1.335l-.045.025 13.396-7.878c32.828-22.77 71.206-40.397 112.498-50.64l2.39-.503-27.752 79.696c-.337.944-.53 2.034-.53 3.17 0 1.808.494 3.502 1.355 4.953l-.024-.046 243.21 407.56c-1.685 51.87-39.08 94.533-88.316 104.294l-.7.115c-24.162-43.957-54.99-81.124-91.593-111.586l-.62-.502c-25.116-21.428-52.834-41.973-81.915-60.575l-3.02-1.807c-94.533-64.02-237.413-160.753-215.58-239.29.23-.78.36-1.673.36-2.598 0-4.353-2.91-8.027-6.89-9.18l-.068-.018z"/></svg>
